!!!OTL: 649. Erbauliche Gedanken eines Tobakrauchers.
!!!COM: J. S. Bach
!!!ARE: Europa, Mitteleuropa, Deutschland
!!!SCT: B0649
!!!TXL: @@DE
!!!YEM: Copyright 1995, estate of Helmut Schaffrath.
**kern	**text
*ICvox	*
*Ivox	*
*clefG2	*
*M3/4	*
*k[b-e-]	*
*g:	*
=1	=1
{4g	So
4g	oft
4g	ich
=2	=2
(4.cc	mei-
16ddL	.
16ee-J)	.
4dd	-ne
=3	=3
(4cc	To-
8b-\L	.
8aJ)	.
4dd	-baks-
=4	=4
(<4b-\	-pfei-
8aL	.
8b-J)	.
4g}	-fe,
=5	=5
{4b-	mit
4b-	gu-
4b-	-tem
=6	=6
(4.dd	Kna-
16ee-L	.
16ffJ)	.
4b-	-ſter
=7	=7
4cc	an-
2a	-ge-
=8	=8
2.b-}	-füllt,
=9	=9
{4g	ʒu
4g	Luſt
4g	und
=10	=10
(4.cc	Ʒeit-
16ddL	.
16ee-J)	.
4dd	-ver-
=11	=11
(4cc	-treib
8b-\L	.
8aJ)	.
4dd	er-
=12	=12
(<4b-\	-grei-
8aL	.
8b-J)	.
4g}	-fe,
=13	=13
{4b-	ſo
4b-	giebt
4b-	ſie
=14	=14
(4.dd	mir
16ee-L	.
16ffJ)	.
4b-	ein
=15	=15
4cc	Trau-
2a	-er-
=16	=16
2.b-}	-bild
=17	=17
{4cc	und
4cc	fü-
4cc	-get
=18	=18
2ff	die-
4a	-ſe
=19	=19
(4dd	Leh-
8ccL	.
8b-J)	.
8aL	-re
8gJ	.
=20	=20
2.f#}	bei,
=21	=21
{4d	daß
4f#	ich
4a	der-
=22	=22
(4.cc	-ſel-
16ddL	.
16ee-J)	.
4dd	-ben
=23	=23
(<4b-	ähn-
4g)	.
4f#	-lich
=24	=24
2.g;}	ſei.
==	==
!!!AGN: Moral -, Lob - Lied auf den Tabak
!!!GTL: Didaktische Lieder: Betrachtungen, Vergleiche und Moralisationen
!!!ONB: ESAC (Essen Associative Code) Database: BOEHME
!!!AMT: simple triple
!!!AIN: vox
!!!EED: Helmut Schaffrath
!!!EEV: 1.0
!!!RDF**kern: < = below
!!@@COMMENT:"Muſik Melodie mit beʒiffertem Baß) von Seb. Bach. Aus deſſen Orgelbüchlein mitgetheilt
!!von K. Bitter, Seb. Bachs Leben J. Theil 1865. Beilage. Entſtehungsʒeit nicht bekaunt. Ganʒ
!!gleicher Text mit anderer Melodie ſteht in Sperontes, "Singende Muſe an der Pleiße". Leipʒig 1736 Nr. 99."
!!@@END:
!!!URL-scan: https://archive.org/details/BoehmeVtLieder1895/page/n507/mode/2up
!!!ENC: Anna Maria Matuszewska
!!!EEV: 2024/16/07
*-	*-
